X: 42425
T: West Limerick
R: slide
M: 12/8
K: Adorian
|:G|E2A AGE G2A B2G|E2A AGE G2E D3|E2A AGE G2A B2d|e2d BdB A3 A2:|
d|e2e edB ded GBd|~e3 e2f g2e d2g|ege edB ded d2B|ABc B2A G2E d3|
ege edB ded GBd|~e3 e2f g2e d2B|c3 cBA B2B c2B|ABc B2A G2E D2||

